X:3759
T:Lonely Jig, The
O:england
R:double jig
M:6/8
L:1/8
K:F
f3 edc|dcA GEC|D3 A3|GAc d2e|
f3 edc|dcA GEC|D2D A2A|GEC D3:|
FED d3|edc AGE|CEG c3|CEG FED|
FEF GFG|AGA cde|dcA GEC|A,B,C D3:|


